X: 29806
T: O'Carolan's Ramble To Cashel
R: waltz
M: 3/4
K: Eminor
|:def|g2 ga ba|g2 fg af|e2 B2 de|d4 gf|
ed cB AG|G4BA|B5G|F2 E4:|
def|g2 b2 b2|b4ag|f2 de fg|a4gf|
g2ga ba|g2 fgaf|e2 B2 de|d4d2|
ef ed BA|BA Bd ef|gf ga ba|g2 fgaf|e2 B2 de|
d4 gf|ed cB AG|G3ABA|B3GF2|E6|

